X:1
T:RVW2/1/6 Our Chief Mate's Name-0
T:RVW2/1/6 Our Chief Mate's Name-0
T:Chanty sung by Mr. Broome at Hadleigh, Sept. 2nd 1907
T:Transcribed by Simon Furey and Lewis Jones
C:Transcribed by Simon Furey and Lewis Jones
L:1/8
Q:1/4=66
M:2/4
K:F
V:1 treble 
V:1
"^(editorial suggestion)" f | dd dc | de fA | F/G/F F/F/G | A/A/F DC | FF G2 | F/ G/F Fc | d>e fA | %8
w: Our|chief mate's name it|was Ike Green, the|dirt- i- est dev- il that|ev- er was seen. Sing|Tow- row- row,|lay a- long now, be|hand- y boys be|
 AG !fermata!F |] %9
w: hand- y now.|

